bernoullicharts/bernstein_mean.svg

<?xml version="1.0" encoding="utf-8" standalone="no"?>
<!DOCTYPE svg PUBLIC "-//W3C//DTD SVG 1.1//EN"
  "http://www.w3.org/Graphics/SVG/1.1/DTD/svg11.dtd">
<!-- Created with matplotlib (https://matplotlib.org/) -->
<svg height="345.6pt" version="1.1" viewBox="0 0 460.8 345.6" width="460.8pt" xmlns="http://www.w3.org/2000/svg" xmlns:xlink="http://www.w3.org/1999/xlink">
 <defs>
  <style type="text/css">
*{stroke-linecap:butt;stroke-linejoin:round;}
  </style>
 </defs>
 <g id="figure_1">
  <g id="patch_1">
   <path d="M 0 345.6 
L 460.8 345.6 
L 460.8 0 
L 0 0 
z
" style="fill:#ffffff;"/>
  </g>
  <g id="axes_1">
   <g id="patch_2">
    <path d="M 57.6 307.584 
L 414.72 307.584 
L 414.72 41.472 
L 57.6 41.472 
z
" style="fill:#ffffff;"/>
   </g>
   <g id="matplotlib.axis_1">
    <g id="xtick_1">
     <g id="line2d_1">
      <defs>
       <path d="M 0 0 
L 0 3.5 
" id="m5a1db325ad" style="stroke:#000000;stroke-width:0.8;"/>
      </defs>
      <g>
       <use style="stroke:#000000;stroke-width:0.8;" x="73.800255" xlink:href="#m5a1db325ad" y="307.584"/>
      </g>
     </g>
     <g id="text_1">
      <text style="font-family:DejaVu Sans;font-size:10px;font-style:normal;font-weight:normal;text-anchor:middle;" transform="rotate(-0, 73.800255, 322.182437)" x="73.800255" y="322.182437">0.0</text>
     </g>
    </g>
    <g id="xtick_2">
     <g id="line2d_2">
      <g>
       <use style="stroke:#000000;stroke-width:0.8;" x="138.744153" xlink:href="#m5a1db325ad" y="307.584"/>
      </g>
     </g>
     <g id="text_2">
      <text style="font-family:DejaVu Sans;font-size:10px;font-style:normal;font-weight:normal;text-anchor:middle;" transform="rotate(-0, 138.744153, 322.182437)" x="138.744153" y="322.182437">0.2</text>
     </g>
    </g>
    <g id="xtick_3">
     <g id="line2d_3">
      <g>
       <use style="stroke:#000000;stroke-width:0.8;" x="203.688051" xlink:href="#m5a1db325ad" y="307.584"/>
      </g>
     </g>
     <g id="text_3">
      <text style="font-family:DejaVu Sans;font-size:10px;font-style:normal;font-weight:normal;text-anchor:middle;" transform="rotate(-0, 203.688051, 322.182437)" x="203.688051" y="322.182437">0.4</text>
     </g>
    </g>
    <g id="xtick_4">
     <g id="line2d_4">
      <g>
       <use style="stroke:#000000;stroke-width:0.8;" x="268.631949" xlink:href="#m5a1db325ad" y="307.584"/>
      </g>
     </g>
     <g id="text_4">
      <text style="font-family:DejaVu Sans;font-size:10px;font-style:normal;font-weight:normal;text-anchor:middle;" transform="rotate(-0, 268.631949, 322.182437)" x="268.631949" y="322.182437">0.6</text>
     </g>
    </g>
    <g id="xtick_5">
     <g id="line2d_5">
      <g>
       <use style="stroke:#000000;stroke-width:0.8;" x="333.575847" xlink:href="#m5a1db325ad" y="307.584"/>
      </g>
     </g>
     <g id="text_5">
      <text style="font-family:DejaVu Sans;font-size:10px;font-style:normal;font-weight:normal;text-anchor:middle;" transform="rotate(-0, 333.575847, 322.182437)" x="333.575847" y="322.182437">0.8</text>
     </g>
    </g>
    <g id="xtick_6">
     <g id="line2d_6">
      <g>
       <use style="stroke:#000000;stroke-width:0.8;" x="398.519745" xlink:href="#m5a1db325ad" y="307.584"/>
      </g>
     </g>
     <g id="text_6">
      <text style="font-family:DejaVu Sans;font-size:10px;font-style:normal;font-weight:normal;text-anchor:middle;" transform="rotate(-0, 398.519745, 322.182437)" x="398.519745" y="322.182437">1.0</text>
     </g>
    </g>
    <g id="text_7">
     <text style="font-family:DejaVu Sans;font-size:10px;font-style:normal;font-weight:normal;text-anchor:middle;" transform="rotate(-0, 236.16, 335.860562)" x="236.16" y="335.860562">Input Coin's Heads Probability (λ)</text>
    </g>
   </g>
   <g id="matplotlib.axis_2">
    <g id="ytick_1">
     <g id="line2d_7">
      <defs>
       <path d="M 0 0 
L -3.5 0 
" id="m868191d550" style="stroke:#000000;stroke-width:0.8;"/>
      </defs>
      <g>
       <use style="stroke:#000000;stroke-width:0.8;" x="57.6" xlink:href="#m868191d550" y="286.909277"/>
      </g>
     </g>
     <g id="text_8">
      <text style="font-family:DejaVu Sans;font-size:10px;font-style:normal;font-weight:normal;text-anchor:end;" transform="rotate(-0, 50.6, 290.708495)" x="50.6" y="290.708495">0.20</text>
     </g>
    </g>
    <g id="ytick_2">
     <g id="line2d_8">
      <g>
       <use style="stroke:#000000;stroke-width:0.8;" x="57.6" xlink:href="#m868191d550" y="244.01566"/>
      </g>
     </g>
     <g id="text_9">
      <text style="font-family:DejaVu Sans;font-size:10px;font-style:normal;font-weight:normal;text-anchor:end;" transform="rotate(-0, 50.6, 247.814878)" x="50.6" y="247.814878">0.25</text>
     </g>
    </g>
    <g id="ytick_3">
     <g id="line2d_9">
      <g>
       <use style="stroke:#000000;stroke-width:0.8;" x="57.6" xlink:href="#m868191d550" y="201.122043"/>
      </g>
     </g>
     <g id="text_10">
      <text style="font-family:DejaVu Sans;font-size:10px;font-style:normal;font-weight:normal;text-anchor:end;" transform="rotate(-0, 50.6, 204.921261)" x="50.6" y="204.921261">0.30</text>
     </g>
    </g>
    <g id="ytick_4">
     <g id="line2d_10">
      <g>
       <use style="stroke:#000000;stroke-width:0.8;" x="57.6" xlink:href="#m868191d550" y="158.228426"/>
      </g>
     </g>
     <g id="text_11">
      <text style="font-family:DejaVu Sans;font-size:10px;font-style:normal;font-weight:normal;text-anchor:end;" transform="rotate(-0, 50.6, 162.027644)" x="50.6" y="162.027644">0.35</text>
     </g>
    </g>
    <g id="ytick_5">
     <g id="line2d_11">
      <g>
       <use style="stroke:#000000;stroke-width:0.8;" x="57.6" xlink:href="#m868191d550" y="115.334809"/>
      </g>
     </g>
     <g id="text_12">
      <text style="font-family:DejaVu Sans;font-size:10px;font-style:normal;font-weight:normal;text-anchor:end;" transform="rotate(-0, 50.6, 119.134027)" x="50.6" y="119.134027">0.40</text>
     </g>
    </g>
    <g id="ytick_6">
     <g id="line2d_12">
      <g>
       <use style="stroke:#000000;stroke-width:0.8;" x="57.6" xlink:href="#m868191d550" y="72.441191"/>
      </g>
     </g>
     <g id="text_13">
      <text style="font-family:DejaVu Sans;font-size:10px;font-style:normal;font-weight:normal;text-anchor:end;" transform="rotate(-0, 50.6, 76.24041)" x="50.6" y="76.24041">0.45</text>
     </g>
    </g>
    <g id="text_14">
     <text style="font-family:DejaVu Sans;font-size:10px;font-style:normal;font-weight:normal;text-anchor:middle;" transform="rotate(-90, 22.254687, 174.528)" x="22.254687" y="174.528">Simulated Mean / Function Value</text>
    </g>
   </g>
   <g id="line2d_13">
    <path clip-path="url(#pe56c474e23)" d="M 73.832727 286.840653 
L 77.112066 279.972196 
L 80.391405 273.226231 
L 83.670744 266.602758 
L 86.950083 260.101777 
L 90.229421 253.723287 
L 93.50876 247.467289 
L 96.788099 241.333782 
L 100.067438 235.322767 
L 103.346777 229.434244 
L 106.626116 223.668213 
L 109.905455 218.024673 
L 113.184793 212.503625 
L 116.464132 207.105069 
L 119.743471 201.829004 
L 123.02281 196.675431 
L 126.302149 191.644349 
L 129.581488 186.73576 
L 132.860826 181.949662 
L 136.140165 177.286055 
L 139.419504 172.744941 
L 142.698843 168.326318 
L 145.978182 164.030186 
L 149.257521 159.856547 
L 152.53686 155.805399 
L 155.816198 151.876742 
L 159.095537 148.070578 
L 162.374876 144.386905 
L 165.654215 140.825723 
L 168.933554 137.387034 
L 172.212893 134.070836 
L 175.492231 130.87713 
L 178.77157 127.805915 
L 182.050909 124.857192 
L 185.330248 122.030961 
L 188.609587 119.327221 
L 191.888926 116.745974 
L 195.168264 114.287217 
L 198.447603 111.950953 
L 201.726942 109.73718 
L 205.006281 107.645899 
L 208.28562 105.677109 
L 211.564959 103.830811 
L 214.844298 102.107005 
L 218.123636 100.505691 
L 221.402975 99.026868 
L 224.682314 97.670537 
L 227.961653 96.436698 
L 231.240992 95.32535 
L 234.520331 94.336494 
L 237.799669 93.470129 
L 241.079008 92.726257 
L 244.358347 92.104875 
L 247.637686 91.605986 
L 250.917025 91.229588 
L 254.196364 90.975682 
L 257.475702 90.844268 
L 260.755041 90.835345 
L 264.03438 90.948914 
L 267.313719 91.184975 
L 270.593058 91.543527 
L 273.872397 92.024571 
L 277.151736 92.628107 
L 280.431074 93.354134 
L 283.710413 94.202653 
L 286.989752 95.173664 
L 290.269091 96.267167 
L 293.54843 97.483161 
L 296.827769 98.821646 
L 300.107107 100.282624 
L 303.386446 101.866093 
L 306.665785 103.572054 
L 309.945124 105.400506 
L 313.224463 107.35145 
L 316.503802 109.424886 
L 319.78314 111.620814 
L 323.062479 113.939233 
L 326.341818 116.380144 
L 329.621157 118.943546 
L 332.900496 121.62944 
L 336.179835 124.437826 
L 339.459174 127.368704 
L 342.738512 130.422073 
L 346.017851 133.597934 
L 349.29719 136.896287 
L 352.576529 140.317131 
L 355.855868 143.860467 
L 359.135207 147.526294 
L 362.414545 151.314614 
L 365.693884 155.225425 
L 368.973223 159.258727 
L 372.252562 163.414521 
L 375.531901 167.692807 
L 378.81124 172.093585 
L 382.090579 176.616854 
L 385.369917 181.262615 
L 388.649256 186.030868 
L 391.928595 190.921612 
L 395.207934 195.934849 
L 398.487273 201.070576 
" style="fill:none;stroke:#1f77b4;stroke-linecap:square;stroke-width:1.5;"/>
   </g>
   <g id="line2d_14">
    <path clip-path="url(#pe56c474e23)" d="M 73.832727 295.488 
L 77.112066 261.173106 
L 80.391405 290.340766 
L 83.670744 292.056511 
L 86.950083 245.731404 
L 90.229421 266.32034 
L 93.50876 237.152681 
L 96.788099 238.868426 
L 100.067438 209.700766 
L 103.346777 240.58417 
L 106.626116 240.58417 
L 109.905455 216.563745 
L 113.184793 187.396085 
L 116.464132 226.858213 
L 119.743471 178.817362 
L 123.02281 209.700766 
L 126.302149 187.396085 
L 129.581488 165.091404 
L 132.860826 182.248851 
L 136.140165 178.817362 
L 139.419504 158.228426 
L 142.698843 171.954383 
L 145.978182 178.817362 
L 149.257521 158.228426 
L 152.53686 156.512681 
L 155.816198 139.355234 
L 159.095537 132.492255 
L 162.374876 141.070979 
L 165.654215 163.37566 
L 168.933554 161.659915 
L 172.212893 129.060766 
L 175.492231 101.608851 
L 178.77157 141.070979 
L 182.050909 147.933957 
L 185.330248 122.197787 
L 188.609587 134.208 
L 191.888926 77.588426 
L 195.168264 122.197787 
L 198.447603 127.345021 
L 201.726942 111.903319 
L 205.006281 132.492255 
L 208.28562 101.608851 
L 211.564959 135.923745 
L 214.844298 77.588426 
L 218.123636 67.293957 
L 221.402975 101.608851 
L 224.682314 79.30417 
L 227.961653 87.882894 
L 231.240992 87.882894 
L 234.520331 81.019915 
L 237.799669 53.568 
L 241.079008 106.756085 
L 244.358347 127.345021 
L 247.637686 75.872681 
L 250.917025 91.314383 
L 254.196364 127.345021 
L 257.475702 77.588426 
L 260.755041 67.293957 
L 264.03438 132.492255 
L 267.313719 118.766298 
L 270.593058 96.461617 
L 273.872397 111.903319 
L 277.151736 115.334809 
L 280.431074 74.156936 
L 283.710413 125.629277 
L 286.989752 94.745872 
L 290.269091 94.745872 
L 293.54843 108.47183 
L 296.827769 101.608851 
L 300.107107 125.629277 
L 303.386446 105.04034 
L 306.665785 87.882894 
L 309.945124 125.629277 
L 313.224463 111.903319 
L 316.503802 129.060766 
L 319.78314 113.619064 
L 323.062479 103.324596 
L 326.341818 147.933957 
L 329.621157 156.512681 
L 332.900496 118.766298 
L 336.179835 125.629277 
L 339.459174 130.776511 
L 342.738512 144.502468 
L 346.017851 105.04034 
L 349.29719 122.197787 
L 352.576529 163.37566 
L 355.855868 125.629277 
L 359.135207 161.659915 
L 362.414545 159.94417 
L 365.693884 163.37566 
L 368.973223 137.639489 
L 372.252562 173.670128 
L 375.531901 144.502468 
L 378.81124 165.091404 
L 382.090579 175.385872 
L 385.369917 226.858213 
L 388.649256 171.954383 
L 391.928595 168.522894 
L 395.207934 192.543319 
L 398.487273 195.974809 
" style="fill:none;stroke:#ff7f0e;stroke-linecap:square;stroke-width:1.5;"/>
   </g>
   <g id="patch_3">
    <path d="M 57.6 307.584 
L 57.6 41.472 
" style="fill:none;stroke:#000000;stroke-linecap:square;stroke-linejoin:miter;stroke-width:0.8;"/>
   </g>
   <g id="patch_4">
    <path d="M 414.72 307.584 
L 414.72 41.472 
" style="fill:none;stroke:#000000;stroke-linecap:square;stroke-linejoin:miter;stroke-width:0.8;"/>
   </g>
   <g id="patch_5">
    <path d="M 57.6 307.584 
L 414.72 307.584 
" style="fill:none;stroke:#000000;stroke-linecap:square;stroke-linejoin:miter;stroke-width:0.8;"/>
   </g>
   <g id="patch_6">
    <path d="M 57.6 41.472 
L 414.72 41.472 
" style="fill:none;stroke:#000000;stroke-linecap:square;stroke-linejoin:miter;stroke-width:0.8;"/>
   </g>
   <g id="text_15">
    <text style="font-family:DejaVu Sans;font-size:12px;font-style:normal;font-weight:normal;" transform="translate(115.619062 22.034625)">Simulated Mean for Bernstein Algorithm</text>
    <text style="font-family:DejaVu Sans;font-size:12px;font-style:normal;font-weight:normal;" transform="translate(132.609375 35.472)">(Wasserstein Distances in Legend)</text>
   </g>
   <g id="legend_1">
    <g id="patch_7">
     <path d="M 229.47 302.584 
L 407.72 302.584 
Q 409.72 302.584 409.72 300.584 
L 409.72 272.22775 
Q 409.72 270.22775 407.72 270.22775 
L 229.47 270.22775 
Q 227.47 270.22775 227.47 272.22775 
L 227.47 300.584 
Q 227.47 302.584 229.47 302.584 
z
" style="fill:#ffffff;opacity:0.8;stroke:#cccccc;stroke-linejoin:miter;"/>
    </g>
    <g id="line2d_15">
     <path d="M 231.47 278.326187 
L 251.47 278.326187 
" style="fill:none;stroke:#1f77b4;stroke-linecap:square;stroke-width:1.5;"/>
    </g>
    <g id="line2d_16"/>
    <g id="text_16">
     <text style="font-family:DejaVu Sans;font-size:10px;font-style:normal;font-weight:normal;text-anchor:start;" transform="rotate(-0, 259.47, 281.826187)" x="259.47" y="281.826187">Bernstein</text>
    </g>
    <g id="line2d_17">
     <path d="M 231.47 293.004312 
L 251.47 293.004312 
" style="fill:none;stroke:#ff7f0e;stroke-linecap:square;stroke-width:1.5;"/>
    </g>
    <g id="line2d_18"/>
    <g id="text_17">
     <text style="font-family:DejaVu Sans;font-size:10px;font-style:normal;font-weight:normal;text-anchor:start;" transform="rotate(-0, 259.47, 296.504312)" x="259.47" y="296.504312">Simul. Mean (WD=0.008713)</text>
    </g>
   </g>
  </g>
 </g>
 <defs>
  <clipPath id="pe56c474e23">
   <rect height="266.112" width="357.12" x="57.6" y="41.472"/>
  </clipPath>
 </defs>
</svg>

<svg height="460.8" viewBox="0 0 460.8 345.6" width="614.4" xmlns="http://www.w3.org/2000/svg" xmlns:xlink="http://www.w3.org/1999/xlink"><defs><style>*{stroke-linecap:butt;stroke-linejoin:round}</style></defs><g id="figure_1"><path d="M0 345.6h460.8V0H0z" fill="#fff" id="patch_1"/><g id="axes_1"><path d="M57.6 307.584h357.12V41.472H57.6z" fill="#fff" id="patch_2"/><g id="matplotlib.axis_1"><g id="xtick_1"><g id="line2d_1"><defs><path d="M0 0v3.5" id="m5a1db325ad" stroke="#000" stroke-width=".8"/></defs><use x="73.8" xlink:href="#m5a1db325ad" y="307.584" stroke="#000" stroke-width=".8"/></g><text x="73.8" y="322.182" font-family="DejaVu Sans" font-size="10" font-weight="400" text-anchor="middle" id="text_1">0.0</text></g><g id="xtick_2"><use x="138.744" xlink:href="#m5a1db325ad" y="307.584" stroke="#000" stroke-width=".8" id="line2d_2"/><text x="138.744" y="322.182" font-family="DejaVu Sans" font-size="10" font-weight="400" text-anchor="middle" id="text_2">0.2</text></g><g id="xtick_3"><use x="203.688" xlink:href="#m5a1db325ad" y="307.584" stroke="#000" stroke-width=".8" id="line2d_3"/><text x="203.688" y="322.182" font-family="DejaVu Sans" font-size="10" font-weight="400" text-anchor="middle" id="text_3">0.4</text></g><g id="xtick_4"><use x="268.632" xlink:href="#m5a1db325ad" y="307.584" stroke="#000" stroke-width=".8" id="line2d_4"/><text x="268.632" y="322.182" font-family="DejaVu Sans" font-size="10" font-weight="400" text-anchor="middle" id="text_4">0.6</text></g><g id="xtick_5"><use x="333.576" xlink:href="#m5a1db325ad" y="307.584" stroke="#000" stroke-width=".8" id="line2d_5"/><text x="333.576" y="322.182" font-family="DejaVu Sans" font-size="10" font-weight="400" text-anchor="middle" id="text_5">0.8</text></g><g id="xtick_6"><use x="398.52" xlink:href="#m5a1db325ad" y="307.584" stroke="#000" stroke-width=".8" id="line2d_6"/><text x="398.52" y="322.182" font-family="DejaVu Sans" font-size="10" font-weight="400" text-anchor="middle" id="text_6">1.0</text></g><text x="236.16" y="335.861" font-family="DejaVu Sans" font-size="10" font-weight="400" text-anchor="middle" id="text_7">Input Coin&apos;s Heads Probability (λ)</text></g><g id="matplotlib.axis_2"><g id="ytick_1"><g id="line2d_7"><defs><path d="M0 0h-3.5" id="m868191d550" stroke="#000" stroke-width=".8"/></defs><use x="57.6" xlink:href="#m868191d550" y="286.909" stroke="#000" stroke-width=".8"/></g><text x="50.6" y="290.708" font-family="DejaVu Sans" font-size="10" font-weight="400" text-anchor="end" id="text_8">0.20</text></g><g id="ytick_2"><use x="57.6" xlink:href="#m868191d550" y="244.016" stroke="#000" stroke-width=".8" id="line2d_8"/><text x="50.6" y="247.815" font-family="DejaVu Sans" font-size="10" font-weight="400" text-anchor="end" id="text_9">0.25</text></g><g id="ytick_3"><use x="57.6" xlink:href="#m868191d550" y="201.122" stroke="#000" stroke-width=".8" id="line2d_9"/><text x="50.6" y="204.921" font-family="DejaVu Sans" font-size="10" font-weight="400" text-anchor="end" id="text_10">0.30</text></g><g id="ytick_4"><use x="57.6" xlink:href="#m868191d550" y="158.228" stroke="#000" stroke-width=".8" id="line2d_10"/><text x="50.6" y="162.028" font-family="DejaVu Sans" font-size="10" font-weight="400" text-anchor="end" id="text_11">0.35</text></g><g id="ytick_5"><use x="57.6" xlink:href="#m868191d550" y="115.335" stroke="#000" stroke-width=".8" id="line2d_11"/><text x="50.6" y="119.134" font-family="DejaVu Sans" font-size="10" font-weight="400" text-anchor="end" id="text_12">0.40</text></g><g id="ytick_6"><use x="57.6" xlink:href="#m868191d550" y="72.441" stroke="#000" stroke-width=".8" id="line2d_12"/><text x="50.6" y="76.24" font-family="DejaVu Sans" font-size="10" font-weight="400" text-anchor="end" id="text_13">0.45</text></g><text transform="rotate(-90 22.255 174.528)" x="22.255" y="174.528" font-family="DejaVu Sans" font-size="10" font-weight="400" text-anchor="middle" id="text_14">Simulated Mean / Function Value</text></g><path clip-path="url(#pe56c474e23)" d="M73.833 286.84l3.28-6.868 3.278-6.746 3.28-6.623 3.28-6.501 3.278-6.379 3.28-6.256 3.28-6.133 3.278-6.011 3.28-5.889 3.28-5.766 3.278-5.643 3.28-5.521 3.28-5.399 3.278-5.276 3.28-5.154 3.28-5.03 3.278-4.91 3.28-4.785 3.28-4.664 3.279-4.541 3.279-4.419 3.28-4.296 3.279-4.173 3.279-4.052 3.28-3.928 3.279-3.806 3.279-3.684 3.28-3.561 3.279-3.439 3.279-3.316 3.28-3.194 3.279-3.071 3.279-2.949 3.28-2.826 3.279-2.704 3.279-2.581 3.28-2.459 3.279-2.336 3.279-2.214 3.28-2.091 3.279-1.969 3.279-1.846 3.28-1.724 3.279-1.601 3.279-1.48 3.28-1.355 3.279-1.234 3.279-1.112 3.28-.989 3.279-.866 3.279-.744 3.28-.621 3.279-.499 3.279-.376 3.28-.254 3.279-.132 3.279-.009 3.28.114 3.279.236 3.28.359 3.278.48 3.28.604 3.28.726 3.278.849 3.28.97 3.28 1.094 3.278 1.216 3.28 1.339 3.28 1.46 3.278 1.584 3.28 1.706 3.28 1.829 3.278 1.95 3.28 2.074 3.28 2.196 3.278 2.318 3.28 2.441 3.28 2.564 3.278 2.685 3.28 2.809 3.28 2.93 3.279 3.054 3.279 3.176 3.28 3.298 3.279 3.421 3.279 3.543 3.28 3.666 3.279 3.789 3.279 3.91 3.28 4.034 3.279 4.156 3.279 4.278 3.28 4.4 3.279 4.524 3.279 4.646 3.28 4.768 3.279 4.89 3.279 5.014 3.28 5.136" fill="none" stroke="#1f77b4" stroke-linecap="square" stroke-width="1.5" id="line2d_13"/><path clip-path="url(#pe56c474e23)" d="M73.833 295.488l3.28-34.315 3.278 29.168 3.28 1.716 3.28-46.326 3.278 20.59 3.28-29.168 3.28 1.715 3.278-29.167 3.28 30.883h3.28l3.278-24.02 3.28-29.168 3.28 39.462 3.278-48.04 3.28 30.883 3.28-22.305 3.278-22.305 3.28 17.158 3.28-3.432 3.279-20.589 3.279 13.726 3.28 6.863 3.279-20.589 3.279-1.715 3.28-17.158 3.279-6.863 3.279 8.579 3.28 22.305 3.279-1.716 3.279-32.6 3.28-27.451 3.279 39.462 3.279 6.863 3.28-25.736 3.279 12.01 3.279-56.62 3.28 44.61 3.279 5.147 3.279-15.442 3.28 20.59 3.279-30.884 3.279 34.315 3.28-58.336 3.279-10.294 3.279 34.315 3.28-22.305 3.279 8.579h3.279l3.28-6.863 3.279-27.452 3.279 53.188 3.28 20.589 3.279-51.472 3.279 15.441 3.28 36.031 3.279-49.757 3.279-10.294 3.28 65.198 3.279-13.726 3.28-22.304 3.278 15.441 3.28 3.432 3.28-41.178 3.278 51.472 3.28-30.883h3.28l3.278 13.726 3.28-6.863 3.28 24.02 3.278-20.589 3.28-17.157 3.28 37.746 3.278-13.726 3.28 17.158 3.28-15.442 3.278-10.294 3.28 44.609 3.28 8.579 3.278-37.747 3.28 6.863 3.28 5.148 3.279 13.725 3.279-39.462 3.28 17.158 3.279 41.178 3.279-37.747 3.28 36.03 3.279-1.715 3.279 3.432 3.28-25.737 3.279 36.031 3.279-29.168 3.28 20.59 3.279 10.294 3.279 51.472 3.28-54.904 3.279-3.431 3.279 24.02 3.28 3.432" fill="none" stroke="#ff7f0e" stroke-linecap="square" stroke-width="1.5" id="line2d_14"/><path d="M57.6 307.584V41.472" fill="none" stroke="#000" stroke-linecap="square" stroke-width=".8" id="patch_3"/><path d="M414.72 307.584V41.472" fill="none" stroke="#000" stroke-linecap="square" stroke-width=".8" id="patch_4"/><path d="M57.6 307.584h357.12" fill="none" stroke="#000" stroke-linecap="square" stroke-width=".8" id="patch_5"/><path d="M57.6 41.472h357.12" fill="none" stroke="#000" stroke-linecap="square" stroke-width=".8" id="patch_6"/><g id="text_15" font-family="DejaVu Sans" font-size="12" font-weight="400"><text transform="translate(115.62 22.035)">Simulated Mean for Bernstein Algorithm</text><text transform="translate(132.61 35.472)">(Wasserstein Distances in Legend)</text></g><g id="legend_1"><path d="M229.47 302.584h178.25q2 0 2-2v-28.356q0-2-2-2H229.47q-2 0-2 2v28.356q0 2 2 2z" fill="#fff" opacity=".8" stroke="#ccc" id="patch_7"/><path d="M231.47 278.326h20" fill="none" stroke="#1f77b4" stroke-linecap="square" stroke-width="1.5" id="line2d_15"/><text x="259.47" y="281.826" font-family="DejaVu Sans" font-size="10" font-weight="400" id="text_16">Bernstein</text><path d="M231.47 293.004h20" fill="none" stroke="#ff7f0e" stroke-linecap="square" stroke-width="1.5" id="line2d_17"/><text x="259.47" y="296.504" font-family="DejaVu Sans" font-size="10" font-weight="400" id="text_17">Simul. Mean (WD=0.008713)</text></g></g></g><defs><clipPath id="pe56c474e23"><path d="M57.6 41.472h357.12v266.112H57.6z"/></clipPath></defs></svg>
